assets/icons/moduleIcons/collaborativeWall.svg

<svg width="50" height="50" viewBox="0 0 50 50" fill="none" xmlns="http://www.w3.org/2000/svg">
<path d="M24.4501 21.32C24.4589 21.9477 24.3341 22.5701 24.0841 23.1459C23.8341 23.7217 23.4646 24.2378 23.0001 24.66C22.0299 25.5775 20.7455 26.0892 19.4101 26.09C18.104 26.1202 16.838 25.6379 15.883 24.7464C14.928 23.8549 14.3599 22.6251 14.3001 21.32C14.295 20.6804 14.4282 20.0472 14.6906 19.4639C14.9529 18.8805 15.3382 18.3607 15.8201 17.94C16.8018 17.0455 18.082 16.5497 19.4101 16.5497C20.7382 16.5497 22.0185 17.0455 23.0001 17.94C23.4784 18.3598 23.8568 18.8811 24.1077 19.4659C24.3585 20.0507 24.4755 20.6842 24.4501 21.32V21.32ZM36.2701 21.32C36.2751 21.949 36.1466 22.5719 35.8932 23.1477C35.6398 23.7234 35.2673 24.2388 34.8001 24.66C33.8277 25.5741 32.5447 26.0851 31.2101 26.09C30.5468 26.1018 29.8877 25.9814 29.2714 25.7359C28.655 25.4904 28.0937 25.1247 27.6201 24.66C27.1539 24.2352 26.7788 23.7201 26.5175 23.146C26.2562 22.5718 26.1142 21.9507 26.1001 21.32C26.0924 20.68 26.2244 20.046 26.4869 19.4622C26.7494 18.8784 27.1362 18.359 27.6201 17.94C28.5904 17.0273 29.8782 16.5287 31.2101 16.55C32.5432 16.5223 33.8333 17.0218 34.8001 17.94C35.2703 18.3674 35.6445 18.8896 35.8979 19.4722C36.1513 20.0549 36.2782 20.6847 36.2701 21.32ZM41.5901 25.54V9.83004C41.6839 8.80109 41.415 7.77173 40.8301 6.92004C40.4857 6.5936 40.0724 6.34865 39.6206 6.20326C39.1689 6.05788 38.6903 6.01577 38.2201 6.08004H12.0001C11.5254 6.01735 11.0427 6.05625 10.5841 6.19417C10.1256 6.33209 9.70152 6.56587 9.34011 6.88004C8.78268 7.77615 8.5301 8.82855 8.62011 9.88004V25.71C9.29508 26.0808 10.0011 26.3919 10.7301 26.64C11.4601 26.89 12.1001 27.12 12.6301 27.32C13.2466 27.5276 13.8836 27.6684 14.5301 27.74C15.2601 27.82 15.8301 27.91 16.2201 27.99C16.7646 28.0851 17.3185 28.1153 17.8701 28.08C18.3183 28.0234 18.7719 28.0234 19.2201 28.08C19.6846 28.1317 20.1546 28.1046 20.6101 28C21.3101 27.89 21.6601 27.88 21.6601 28C22.4599 27.9154 23.2617 28.1409 23.9001 28.63C23.957 28.7149 24.028 28.7893 24.1101 28.85C24.5401 29.24 25.0101 29.65 25.5501 30.07C25.6568 28.63 26.5868 27.94 28.3401 28H29.2201H30.2201H31.2701C31.6923 28.0444 32.1179 28.0444 32.5401 28C32.9692 27.9603 33.401 27.9603 33.8301 28C34.3149 28.007 34.7978 27.9361 35.2601 27.79C35.7415 27.6381 36.2376 27.5375 36.7401 27.49C37.2875 27.4318 37.8178 27.2652 38.3001 27C38.8138 26.7355 39.3533 26.5244 39.9101 26.37C40.5178 26.1928 41.0873 25.9046 41.5901 25.52V25.54ZM45.4401 25.46C43.0413 28.1237 40.022 30.1537 36.6501 31.37C37.9801 35.84 37.7901 39.5 36.1101 42.37C35.6595 43.2056 35.0459 43.9423 34.3056 44.5366C33.5653 45.1309 32.7133 45.5708 31.8001 45.83C31.1076 46.0932 30.3653 46.1993 29.6269 46.1405C28.8884 46.0817 28.1722 45.8595 27.5301 45.49C26.8678 45.0984 26.3326 44.5241 25.9885 43.8359C25.6444 43.1477 25.5061 42.3749 25.5901 41.61V33.92L25.0001 33.78L24.4501 33.65V41.59C24.5342 42.3549 24.3959 43.1277 24.0518 43.8159C23.7077 44.5041 23.1724 45.0784 22.5101 45.47C21.8595 45.8363 21.1369 46.0565 20.3926 46.1152C19.6483 46.174 18.9001 46.0698 18.2001 45.81C16.357 45.2595 14.8072 44.001 13.8901 42.31C12.2634 39.4567 12.0968 35.81 13.3901 31.37C10.0182 30.1537 6.99887 28.1237 4.60011 25.46C4.41307 25.255 4.30287 24.9915 4.28828 24.7143C4.27369 24.4372 4.35562 24.1636 4.52011 23.94C4.86011 23.52 5.32011 23.53 5.91011 23.94C6.01329 23.9909 6.11345 24.0477 6.21011 24.11C6.2995 24.1572 6.38335 24.2143 6.46011 24.28V8.00004C6.44228 6.92227 6.8356 5.87817 7.56011 5.08004C7.89093 4.69114 8.30602 4.38275 8.77386 4.17828C9.2417 3.97382 9.74999 3.87866 10.2601 3.90004H39.8601C40.3677 3.89642 40.8704 3.99961 41.3356 4.2029C41.8008 4.40619 42.218 4.70504 42.5601 5.08004C42.9279 5.46783 43.2119 5.92725 43.3942 6.42964C43.5766 6.93203 43.6535 7.46662 43.6201 8.00004V24.32L44.1301 23.98C44.7201 23.56 45.1301 23.54 45.5201 23.98C45.9101 24.42 45.8301 24.88 45.4401 25.5V25.46Z" fill="#000"/>
</svg>

<svg xmlns="http://www.w3.org/2000/svg" viewBox="0 0 50 50"><g id="collaborative_wall" data-name="collaborative wall"><path id="path1703" fill="#000" d="M24.45,21.32A4.43,4.43,0,0,1,23,24.66a5.23,5.23,0,0,1-3.59,1.43,5,5,0,0,1-5.11-4.77,4.44,4.44,0,0,1,1.52-3.38,5.33,5.33,0,0,1,7.18,0A4.27,4.27,0,0,1,24.45,21.32Zm11.82,0a4.45,4.45,0,0,1-1.47,3.34,5.27,5.27,0,0,1-3.59,1.43,5,5,0,0,1-3.59-1.43,4.66,4.66,0,0,1-1.52-3.34,4.4,4.4,0,0,1,1.52-3.38,5.12,5.12,0,0,1,3.59-1.39,5.06,5.06,0,0,1,3.59,1.39A4.49,4.49,0,0,1,36.27,21.32Zm5.32,4.22V9.83a4.43,4.43,0,0,0-.76-2.91,3.17,3.17,0,0,0-2.61-.84H12a3.38,3.38,0,0,0-2.66.8,4.89,4.89,0,0,0-.72,3V25.71a13.25,13.25,0,0,0,2.11.93c.73.25,1.37.48,1.9.68a9.09,9.09,0,0,0,1.9.42c.73.08,1.3.17,1.69.25a7,7,0,0,0,1.65.09,5.38,5.38,0,0,1,1.35,0A4.16,4.16,0,0,0,20.61,28c.7-.11,1.05-.12,1.05,0a3.14,3.14,0,0,1,2.24.63.89.89,0,0,0,.21.22c.43.39.9.8,1.44,1.22q.16-2.16,2.79-2.07l.88,0,1,0,1.05,0a6.08,6.08,0,0,0,1.27,0A7,7,0,0,1,33.83,28a4.53,4.53,0,0,0,1.43-.21,7.15,7.15,0,0,1,1.48-.3A4.15,4.15,0,0,0,38.3,27a8.44,8.44,0,0,1,1.61-.63,5.13,5.13,0,0,0,1.68-.85Zm3.85-.08a21.77,21.77,0,0,1-8.79,5.91c1.33,4.47,1.14,8.13-.54,11a7.1,7.1,0,0,1-4.31,3.46,5,5,0,0,1-4.27-.34,4,4,0,0,1-1.94-3.88l0-7.69L25,33.78l-.55-.13,0,7.94a4,4,0,0,1-1.94,3.88,5.14,5.14,0,0,1-4.31.34,7.27,7.27,0,0,1-4.31-3.5q-2.44-4.28-.5-10.94a21.77,21.77,0,0,1-8.79-5.91,1.2,1.2,0,0,1-.08-1.52c.34-.42.8-.41,1.39,0a3,3,0,0,1,.3.17,1.36,1.36,0,0,1,.25.17V8a4.24,4.24,0,0,1,1.1-2.92,3.36,3.36,0,0,1,2.7-1.18h29.6a3.62,3.62,0,0,1,2.7,1.18A3.89,3.89,0,0,1,43.62,8V24.32l.51-.34c.59-.42,1-.44,1.39,0s.31.9-.08,1.52Z"/></g></svg>
